img/icon-contextualmenu.svg

<svg fill="none" height="24" viewBox="0 0 24 24" width="24" xmlns="http://www.w3.org/2000/svg"><path d="m12 15.75c.9665 0 1.75.7835 1.75 1.75s-.7835 1.75-1.75 1.75-1.75-.7835-1.75-1.75.7835-1.75 1.75-1.75zm0-5.5c.9665 0 1.75.7835 1.75 1.75s-.7835 1.75-1.75 1.75-1.75-.7835-1.75-1.75.7835-1.75 1.75-1.75zm0-5.5c.9665 0 1.75.7835 1.75 1.75s-.7835 1.75-1.75 1.75-1.75-.7835-1.75-1.75.7835-1.75 1.75-1.75z" fill="#fff"/></svg>

<svg width="24" height="24" viewBox="0 0 24 24" fill="none" xmlns="http://www.w3.org/2000/svg">
<path d="M12 15.75C12.9665 15.75 13.75 16.5335 13.75 17.5C13.75 18.4665 12.9665 19.25 12 19.25C11.0335 19.25 10.25 18.4665 10.25 17.5C10.25 16.5335 11.0335 15.75 12 15.75ZM12 10.25C12.9665 10.25 13.75 11.0335 13.75 12C13.75 12.9665 12.9665 13.75 12 13.75C11.0335 13.75 10.25 12.9665 10.25 12C10.25 11.0335 11.0335 10.25 12 10.25ZM12 4.75C12.9665 4.75 13.75 5.5335 13.75 6.5C13.75 7.4665 12.9665 8.25 12 8.25C11.0335 8.25 10.25 7.4665 10.25 6.5C10.25 5.5335 11.0335 4.75 12 4.75Z" fill="white"/>
</svg>
